media/svgs/brands/hacker-news.svg

<svg xmlns="http://www.w3.org/2000/svg" viewBox="0 0 448 512"><!--! Font Awesome Free 7.0.0 by @fontawesome - https://fontawesome.com License - https://fontawesome.com/license/free (Icons: CC BY 4.0, Fonts: SIL OFL 1.1, Code: MIT License) Copyright 2025 Fonticons, Inc. --><path fill="currentColor" d="M0 32l0 448 448 0 0-448-448 0zM21.2 229.2l-.2 0c.1-.1 .2-.3 .3-.4 0 .1 0 .3-.1 .4zm218 53.9l0 100.9-31.4 0 0-102.7-79.8-153.3 37.3 0c52.5 98.3 49.2 101.2 59.3 125.6 12.3-27 5.8-24.4 60.6-125.6l34.8 0-80.8 155.1z"/></svg>

<svg xmlns="http://www.w3.org/2000/svg" viewBox="0 0 448 512"><!--! Font Awesome Free 6.7.1 by @fontawesome - https://fontawesome.com License - https://fontawesome.com/license/free (Icons: CC BY 4.0, Fonts: SIL OFL 1.1, Code: MIT License) Copyright 2024 Fonticons, Inc. --><path d="M0 32v448h448V32H0zm21.2 197.2H21c.1-.1.2-.3.3-.4 0 .1 0 .3-.1.4zm218 53.9V384h-31.4V281.3L128 128h37.3c52.5 98.3 49.2 101.2 59.3 125.6 12.3-27 5.8-24.4 60.6-125.6H320l-80.8 155.1z"/></svg>
